dist/svg/map.svg

<!-- Generated by Trend Micro Style Portal -->
<svg version="1.1" xmlns="http://www.w3.org/2000/svg" width="16" height="16" viewBox="0 0 16 16">
  <title>map</title>
  <path fill="rgb(34,34,34)" d="M11 3l-6-2-5 2v12l5-2 6 2 5-2v-12l-5 2zM10.7 8.4l-2.7 4.6-2.7-4.6c-0.2-0.4-0.3-0.9-0.3-1.4 0-1.7 1.3-3 3-3s3 1.3 3 3c0 0.5-0.1 1-0.3 1.4zM8 5.5c0.8 0 1.5 0.7 1.5 1.5s-0.7 1.5-1.5 1.5-1.5-0.7-1.5-1.5 0.7-1.5 1.5-1.5z"></path>
</svg>

<svg width="16" height="16" viewBox="0 0 16 16" fill="rgb(34, 34, 34)" xmlns="http://www.w3.org/2000/svg"><title>map</title><path d="M11 3L5 1L0 3V15L5 13L11 15L16 13V1L11 3ZM10.7 8.4L8 13L5.3 8.4C5.1 8 5 7.5 5 7C5 5.3 6.3 4 8 4C9.7 4 11 5.3 11 7C11 7.5 10.9 8 10.7 8.4ZM8 5.5C8.8 5.5 9.5 6.2 9.5 7C9.5 7.8 8.8 8.5 8 8.5C7.2 8.5 6.5 7.8 6.5 7C6.5 6.2 7.2 5.5 8 5.5Z" fill="rgb(34, 34, 34)" fill-opacity="1.00"/></svg>
